X:1
T:Title
%%score { ( 1 3 ) | ( 2 4 ) }
L:1/8
M:4/4
K:G
V:1 treble nm="Grand Piano"
V:3 treble 
V:2 treble 
V:4 treble 
V:1
 z4 z2[Q:1/4=100] D2 | G3 A BGBc | d6 B2 | [FA]3 [DG] [GB]2 [FA]2 |[M:3/4] [B,DG]6 |[M:1/4] D2 | %6
[M:4/4] G3 A BGBc | d6 B2 | [CFA]3 [B,DG] [DGB]2 [CFA]2 |[M:3/4] [B,DG]6 |[M:1/4] [B,D]2 | %11
[M:4/4] [Fc]3 [GB] [FA][EG][DF][EG] | [FA]6 D2 | d3 [Gd] [Fc]2 [=FB]2 |[M:3/4] [Fc]6 |[M:1/4] d2 | %16
[M:4/4] B3 A GD[DG][DF] | [CE]6 [EG]2 | [DF]2 [DA]2 [Fc]3 [CDF] |[M:3/4] [G,B,DG]6 | %20
[M:1/4] [DBd]2 |[M:4/4] [DBd]3 [DAc] [DGB]2 [B,DB]2 | [B,DB]3 [A,CA] [G,B,G]2 [G,D]2 | %23
 [G,CE]3 [A,CF] [G,DG]2 [CEA]2 | [B,G]4 F2 D2 | B3 A GD[DG][DF] | [CE]6 [EG]2 | %27
 [DF]2 [DA]2 [Fc]3 [DF] |[M:7/4] [B,DG]6 z2 z2 z4 |] %29
V:2
 z4 z2 [G,B,]2 | [G,B,D]3 [G,CD] [G,DG][G,B,D][G,DG][G,DG] | [G,B,G]6 [G,DG]2 | %3
 [D,C]3 [D,B,] [D,D]2 [D,C]2 |[M:3/4] [G,,G,]6 |[M:1/4] [G,B,]2 | %6
[M:4/4][K:treble] [G,B,D]3 [G,CD] [G,DG][G,B,D][G,DG][G,DG] | [G,B,G]6 [G,DG]2 | D,3 D, D,2 D,2 | %9
[M:3/4] G,,6 |[M:1/4] G,2 |[M:4/4] [D,A,]3 [D,D] [D,D][D,A,][D,A,][D,A,] | [D,D]6 [D,F,]2 | %13
 [D,B,D]3 [D,B,] [D,A,]2 [D,^G,]2 |[M:3/4] [D,A,]6 |[M:1/4] [F,A,D]2 | %16
[M:4/4] [G,D]3 [G,CD] [G,B,D][G,B,][B,,G,][B,,G,] | [C,G,]6 [C,C]2 | [D,A,]2 [D,F,]2 [D,A,]3 D, | %19
[M:3/4] G,,6 |[M:1/4] G,2 |[M:4/4] G,3 G, G,2 G,,2 | G,,3 G,, G,,2 B,,2 | C,3 A,, B,,2 C,2 | %24
 z4 A,2 [D,F,]2 | [G,D]3 [G,CD] [G,B,D][G,B,][B,,G,][B,,G,] | [C,G,]6 [C,C]2 | %27
 [D,A,]2 [D,F,]2 [D,A,]3 [D,C] |[M:7/4] [G,,G,]6 z2 z2 z4 |] %29
V:3
 x8 | x8 | x8 | x8 |[M:3/4] x6 |[M:1/4] x2 |[M:4/4] x8 | x8 | x8 |[M:3/4] x6 |[M:1/4] x2 | %11
[M:4/4] x8 | x8 | x8 |[M:3/4] x6 |[M:1/4] x2 |[M:4/4] x8 | x8 | x8 |[M:3/4] x6 |[M:1/4] x2 | %21
[M:4/4] x8 | x8 | x8 | D6 z2 | x8 | x8 | x8 |[M:7/4] x14 |] %29
V:4
 x8 | x8 | x8 | x8 |[M:3/4] x6 |[M:1/4] x2 |[M:4/4][K:treble] x8 | x8 | x8 |[M:3/4] x6 | %10
[M:1/4] x2 |[M:4/4] x8 | x8 | x8 |[M:3/4] x6 |[M:1/4] x2 |[M:4/4] x8 | x8 | x8 |[M:3/4] x6 | %20
[M:1/4] x2 |[M:4/4] x8 | x8 | x8 | D,6 z2 | x8 | x8 | x8 |[M:7/4] x14 |] %29

